ncols         81
nrows         121
xllcorner     98.0000
yllcorner     13.0000
cellsize      0.0500
NODATA_value  -9999
7.637 5.485 8.885 10.588 10.760 6.634 10.661 8.372 6.704 7.126 8.578 8.062 9.429 12.296 8.760 8.530 8.125 7.153 11.226 10.796 10.042 11.038 6.607 9.483 10.324 12.403 7.079 9.589 8.109 9.452 8.954 9.960 10.348 10.435 9.195 9.821 6.729 7.240 7.540 7.609 6.368 6.934 7.314 8.710 11.295 9.633 12.359 8.813 11.290 11.912 8.637 9.639 9.493 9.842 9.361 10.303 4.622 6.701 4.677 7.382 6.862 11.658 7.923 9.326 6.135 6.612 7.208 6.633 8.661 7.489 7.794 6.689 9.233 6.613 6.706 9.050 10.426 7.338 10.816 6.814 6.550 
8.154 7.739 8.488 9.382 7.923 5.427 8.665 6.379 5.748 12.015 11.496 7.547 6.692 11.573 4.402 7.777 5.993 8.867 8.468 11.481 11.879 6.373 9.658 7.385 8.315 7.207 11.133 12.338 9.444 12.502 9.461 10.557 10.453 11.990 13.560 6.145 13.623 7.260 12.462 8.500 6.931 14.172 7.850 13.594 6.131 12.876 9.839 6.524 8.805 8.501 9.745 4.629 11.488 7.827 7.568 5.013 6.177 8.321 11.254 7.073 6.773 10.632 9.932 9.038 9.874 6.087 6.935 9.048 7.928 7.594 9.161 11.514 7.806 4.871 4.711 9.053 10.521 8.948 10.658 7.441 8.058 
8.630 8.107 11.028 12.431 5.351 8.995 8.519 9.465 10.692 9.810 8.146 10.056 10.792 10.459 4.412 10.973 7.858 9.386 8.398 11.709 9.250 9.180 8.319 10.132 9.600 12.106 10.682 9.304 13.756 9.210 13.244 8.094 5.250 12.367 9.883 8.707 7.418 10.874 5.490 11.819 7.293 10.828 10.806 11.711 13.211 7.421 12.968 8.747 9.178 8.208 10.571 11.433 8.864 10.521 9.394 7.526 9.191 8.363 10.043 10.860 5.622 8.639 9.769 10.143 12.665 8.521 8.312 10.882 12.513 6.217 7.312 9.338 5.515 12.486 5.598 7.216 10.774 5.303 6.778 8.105 4.746 
9.370 9.983 9.633 7.401 7.574 7.663 8.120 8.542 10.971 11.007 7.662 10.600 11.103 7.096 9.626 7.880 11.713 11.643 7.632 5.817 10.407 10.130 14.876 10.737 13.025 12.342 14.601 11.999 7.607 5.022 10.292 8.548 11.536 8.937 13.057 9.621 5.335 9.800 11.554 7.265 12.886 11.437 8.929 10.086 9.328 12.693 11.343 11.823 10.580 11.612 4.925 7.227 8.903 8.176 9.219 11.988 10.644 10.299 8.562 9.682 9.358 9.622 10.031 8.194 9.183 5.062 9.949 8.528 9.703 10.081 7.136 8.804 10.157 6.166 8.227 7.912 8.341 7.809 9.095 9.449 9.641 
5.928 12.644 5.176 12.504 9.537 8.851 6.326 8.126 7.953 6.781 10.028 6.484 11.435 9.212 10.798 13.274 10.416 7.811 13.243 8.099 12.652 9.703 10.356 7.786 10.718 11.021 9.902 6.800 9.764 10.198 13.227 9.798 10.966 8.017 10.720 11.143 7.897 10.852 11.334 10.627 10.892 12.110 12.051 6.535 11.000 9.068 9.983 12.615 7.225 9.618 6.784 7.468 10.711 13.382 9.955 8.165 10.627 9.494 6.554 10.794 6.857 7.686 10.403 8.083 10.533 7.604 8.986 8.030 12.071 13.195 7.560 9.538 5.012 3.036 7.271 7.885 6.819 8.831 10.013 5.758 10.533 
10.812 4.509 9.371 7.374 10.079 8.545 11.421 9.346 13.210 9.229 10.655 10.937 10.714 11.267 10.553 9.313 9.362 6.282 11.558 10.197 14.647 12.989 7.739 10.327 9.686 13.173 11.004 10.239 12.344 13.402 11.455 12.385 12.324 9.148 15.527 13.656 11.471 9.252 9.244 11.176 9.241 9.937 10.456 10.895 8.560 9.640 7.964 9.533 12.371 9.695 10.751 10.995 9.688 6.969 12.034 9.303 9.221 9.018 6.287 8.514 9.479 11.097 9.502 9.471 10.417 9.737 7.002 9.816 9.169 6.380 8.231 9.568 4.976 7.555 7.624 8.504 8.351 10.440 6.336 9.609 7.532 
11.396 9.246 11.088 9.614 9.570 12.723 9.776 12.141 8.836 8.207 12.356 12.248 9.632 8.466 11.491 9.055 12.569 11.350 12.871 10.555 9.569 11.945 9.096 11.241 14.003 14.313 12.000 8.611 7.471 14.708 13.205 13.411 7.649 6.595 9.302 12.126 14.729 11.694 8.041 8.920 12.285 12.046 11.244 12.065 12.271 9.176 10.106 8.073 10.958 11.415 12.585 9.743 12.474 7.442 11.768 10.276 15.735 11.704 10.125 4.303 10.918 5.546 8.195 7.857 9.115 12.521 9.686 10.088 8.204 4.349 5.695 6.729 8.571 8.293 6.000 12.493 8.900 7.053 10.265 5.679 9.996 
8.815 5.823 13.125 7.795 9.658 8.898 10.708 12.149 7.758 10.715 7.269 10.456 11.484 9.449 8.871 7.119 10.249 9.798 11.641 9.385 10.984 12.002 12.416 9.350 10.525 13.840 12.170 11.822 13.535 13.535 9.369 10.378 13.450 13.177 14.414 12.400 10.027 9.173 6.913 13.193 11.325 10.569 10.371 9.354 12.678 9.036 7.069 10.017 15.155 9.185 11.198 10.306 11.138 8.400 9.204 9.282 11.744 11.762 7.740 10.999 8.556 10.270 7.640 10.617 7.562 7.524 8.809 6.478 9.286 8.694 7.285 11.838 9.324 11.137 11.585 6.883 10.735 7.751 5.163 8.391 7.575 
9.959 11.941 12.176 10.281 8.724 11.965 9.646 9.162 10.906 9.525 8.440 10.823 12.188 10.820 12.522 13.636 10.915 14.461 12.937 10.405 11.912 10.528 13.513 11.134 10.674 18.704 15.659 10.867 12.032 11.361 9.012 7.381 10.045 6.786 17.330 10.370 14.775 14.421 14.442 11.999 14.072 11.997 9.565 10.255 13.976 7.666 10.027 11.146 10.131 9.284 12.686 9.795 10.852 9.017 8.613 13.319 8.582 8.285 7.943 9.837 10.301 12.000 9.152 10.869 9.613 7.106 9.314 10.566 8.466 10.024 8.616 8.498 7.188 8.797 10.318 7.477 10.483 6.817 6.708 6.327 10.301 
12.618 10.390 9.851 11.678 13.009 8.193 8.716 11.866 12.840 9.523 11.186 13.860 12.120 12.734 10.205 12.226 11.155 13.079 13.861 12.039 15.510 12.919 16.613 12.214 10.303 11.323 9.468 7.255 12.200 13.722 11.647 12.216 14.144 11.443 11.275 16.172 11.182 11.876 10.762 12.225 10.760 13.150 13.118 12.591 7.548 11.280 10.971 11.964 10.246 11.207 10.074 11.546 14.721 12.356 12.355 9.846 5.767 5.736 10.651 12.401 9.537 9.132 9.507 10.744 6.679 13.415 8.235 9.565 7.277 9.455 12.237 6.814 9.952 5.583 8.512 6.430 9.426 7.539 8.782 8.900 8.192 
10.970 10.740 11.636 12.661 8.894 10.048 12.899 12.926 10.253 13.807 11.641 9.501 7.486 9.495 9.001 8.892 14.526 10.578 10.987 12.181 11.997 12.279 12.725 13.065 13.606 15.199 11.031 15.411 5.742 10.572 14.138 16.204 11.413 14.308 14.977 8.631 12.640 14.603 11.856 13.928 11.643 12.792 8.724 8.195 14.021 8.888 13.518 9.624 10.226 9.763 11.499 13.430 10.761 12.823 10.459 11.889 6.904 11.433 10.094 9.211 4.728 10.340 11.451 5.778 7.167 11.323 9.430 6.384 6.531 6.827 10.449 7.292 8.477 5.776 9.433 7.414 8.668 11.128 6.404 7.915 6.458 
9.269 8.427 15.233 8.328 9.658 10.031 9.418 12.495 8.343 15.425 9.121 10.057 5.769 9.928 7.861 11.907 9.868 15.298 11.343 11.052 11.845 12.561 14.505 14.610 15.313 9.801 13.094 9.489 14.398 12.102 12.976 14.311 9.713 15.004 14.855 13.084 16.904 14.828 12.604 9.561 15.037 12.763 12.813 8.555 11.201 12.282 11.584 9.880 10.064 12.903 15.196 8.946 13.782 12.165 11.940 7.834 10.957 9.590 14.232 11.816 9.679 10.626 7.354 8.877 10.224 6.160 11.674 6.570 10.069 9.789 6.363 10.871 11.470 8.918 10.025 7.068 9.288 6.489 8.881 8.227 9.411 
6.237 9.473 8.719 8.061 13.151 9.873 5.547 8.878 7.786 14.731 11.570 15.931 9.851 11.484 10.905 9.686 11.486 15.719 12.303 11.467 11.665 9.511 11.539 10.018 14.414 15.067 14.928 15.982 15.077 14.212 11.006 15.080 13.340 13.309 13.699 14.223 13.043 12.821 13.478 17.487 12.655 14.840 8.887 14.426 12.384 16.350 13.356 11.447 14.201 9.887 10.887 9.570 15.042 12.645 10.229 11.800 5.680 8.501 8.441 12.140 10.809 7.470 7.928 8.969 9.559 8.362 11.178 6.705 7.298 7.563 6.153 7.394 6.342 7.750 11.409 7.774 10.668 9.774 11.228 8.943 6.892 
10.222 9.926 8.904 10.914 10.474 11.275 7.034 11.932 13.069 14.374 11.797 10.794 10.622 14.644 10.480 14.345 12.604 14.526 12.594 7.898 14.329 16.959 14.059 16.557 12.857 15.790 14.680 17.026 15.060 16.132 13.714 15.676 12.391 12.778 10.116 13.936 13.890 11.183 15.508 13.175 14.528 12.866 11.423 12.966 11.000 12.484 14.020 10.902 11.321 11.970 12.382 11.427 10.940 10.318 11.438 10.592 15.464 10.955 8.004 8.868 7.180 9.047 10.066 9.768 10.417 11.919 6.185 9.750 5.089 7.855 9.020 4.887 7.843 9.985 9.192 6.805 4.506 5.691 7.949 8.492 6.463 
8.224 11.604 11.815 9.114 9.305 10.619 8.841 11.879 12.087 11.653 12.548 13.588 10.456 13.646 14.632 15.317 15.682 15.180 14.219 11.787 9.380 19.492 17.182 14.517 11.563 14.577 13.177 15.393 14.571 12.915 15.723 16.881 12.039 12.735 13.204 12.156 14.778 15.817 15.831 10.245 11.495 14.764 13.288 14.963 14.199 12.267 11.470 11.139 11.691 11.980 10.895 10.925 11.394 10.754 11.178 7.808 11.518 13.765 8.761 9.214 10.069 10.657 7.769 8.370 11.474 9.478 7.746 11.686 11.253 11.015 8.916 9.217 7.605 6.217 6.924 10.882 7.322 8.110 2.501 11.206 5.539 
12.161 8.809 10.255 14.243 8.641 10.570 10.614 12.996 15.584 10.250 12.766 12.029 11.466 11.530 12.477 13.489 9.110 14.514 13.401 13.790 17.240 13.445 17.608 16.164 17.601 11.502 12.411 12.893 16.348 14.310 16.884 16.510 18.956 15.608 18.765 14.913 17.042 12.356 16.007 11.881 13.045 13.434 13.733 13.262 14.216 15.128 13.182 12.445 15.524 13.226 9.473 8.561 9.901 12.887 9.434 9.876 10.066 13.756 9.277 12.016 12.662 12.090 14.561 8.170 11.671 9.128 4.873 11.833 9.192 11.478 8.822 6.332 4.679 8.092 11.121 5.848 11.051 10.632 10.371 6.709 7.366 
11.100 7.950 11.413 13.413 13.015 9.156 15.450 14.324 12.098 15.022 14.441 10.499 12.300 11.233 11.820 12.452 9.747 11.533 19.415 15.289 14.624 16.273 12.303 12.362 17.444 15.173 17.945 17.480 14.998 18.151 14.121 16.480 14.790 13.241 14.443 14.649 16.368 12.143 14.945 14.297 13.985 14.690 11.902 12.754 14.191 12.383 12.568 11.238 11.145 12.215 12.714 12.818 9.310 11.093 12.409 10.911 12.672 11.173 10.310 12.619 11.811 8.080 10.473 6.413 9.714 9.563 10.827 4.634 11.873 11.296 7.962 9.727 8.430 8.241 7.761 8.820 8.472 6.875 6.728 7.220 6.406 
9.662 7.948 10.069 7.402 10.389 12.084 11.512 15.306 11.014 8.966 13.486 10.552 13.810 12.437 13.118 11.861 16.514 14.835 14.665 15.372 17.543 16.497 19.014 18.026 16.150 18.175 14.998 17.320 15.434 18.074 15.520 14.957 19.691 19.013 15.114 18.440 14.429 14.785 16.442 14.330 14.577 12.128 15.105 15.087 12.046 16.071 16.225 12.229 10.473 16.123 14.464 10.908 10.886 11.540 14.156 9.350 13.147 10.645 8.815 10.072 12.155 8.470 9.294 9.298 11.871 10.797 10.710 10.310 5.787 7.090 8.838 8.067 11.070 12.610 10.947 6.882 9.878 6.490 7.227 8.819 11.105 
7.669 12.199 11.392 9.269 10.989 11.680 10.748 11.738 13.980 13.344 12.726 13.747 10.037 13.883 16.558 17.761 16.949 11.215 16.661 16.610 18.080 19.071 15.916 16.886 16.242 18.324 12.973 13.698 17.568 14.004 15.250 14.913 16.400 15.471 20.339 21.000 16.574 18.405 15.767 17.084 20.720 18.048 11.639 14.885 12.680 14.691 14.798 15.387 14.824 12.477 15.458 12.260 12.817 12.897 10.659 11.135 7.839 13.153 12.856 9.725 12.729 6.925 8.904 8.739 10.367 11.888 11.454 8.560 12.780 7.692 8.380 9.135 8.236 9.200 8.841 5.065 9.584 8.861 7.801 7.921 6.798 
11.668 12.984 7.476 12.435 10.052 14.333 14.307 12.925 15.992 10.515 13.194 11.179 14.573 14.814 13.705 12.778 11.420 16.579 17.440 17.708 18.174 17.972 16.618 16.655 15.516 17.056 17.079 16.342 17.014 18.738 20.765 15.335 14.563 16.072 16.335 16.796 11.165 12.860 15.700 17.427 18.365 18.969 16.122 19.193 16.264 14.092 15.216 16.392 14.548 20.081 13.562 10.996 18.170 13.104 14.446 11.592 13.001 12.889 12.098 8.256 11.206 11.291 9.839 11.282 11.042 10.107 9.008 9.192 10.504 10.359 8.437 10.161 7.828 6.887 8.068 5.103 8.668 5.568 9.273 6.791 8.508 
12.655 9.580 6.028 11.163 13.886 14.590 14.810 13.786 13.113 16.469 16.381 11.924 12.627 12.645 15.160 13.844 12.978 15.195 18.683 16.514 15.276 18.176 15.939 15.550 19.575 18.608 17.212 17.663 15.561 17.747 19.922 18.375 18.297 18.279 19.706 22.087 20.669 17.799 18.499 19.369 17.076 14.521 19.971 10.890 14.296 17.842 15.651 14.573 13.671 12.458 14.319 16.315 13.562 14.655 12.357 15.773 11.372 11.757 14.322 7.631 7.895 10.046 9.201 9.832 12.008 6.699 11.075 10.584 12.155 14.544 8.798 12.102 11.665 9.577 8.286 7.304 4.952 7.470 5.112 8.002 6.898 
10.767 10.260 9.955 11.539 13.536 14.191 14.702 9.282 13.533 15.147 16.224 15.162 17.192 17.922 17.174 14.933 17.878 16.310 14.045 17.684 13.443 15.301 22.645 16.687 16.292 18.714 18.034 19.860 20.061 19.813 20.404 20.133 14.850 20.571 15.949 22.052 17.116 17.476 20.413 16.324 15.566 20.278 14.630 11.042 15.644 15.062 17.179 14.769 13.555 14.507 17.713 15.072 13.978 14.362 15.200 12.967 14.502 11.999 8.774 10.951 11.327 13.012 9.308 8.085 9.741 9.686 9.975 7.431 11.487 5.259 8.441 8.023 9.931 5.939 7.690 12.027 10.453 10.285 9.645 8.493 7.832 
11.417 11.267 11.196 11.897 10.498 13.181 11.084 10.099 13.589 12.407 13.558 15.474 14.005 17.356 16.129 19.548 15.392 17.242 21.781 18.027 20.402 19.032 15.123 20.245 18.611 19.918 14.814 16.448 19.157 17.603 21.600 15.989 17.333 20.719 20.325 21.090 19.309 17.985 18.449 18.683 15.804 16.250 15.999 18.370 16.559 14.152 12.629 16.727 14.397 14.516 11.212 12.919 16.206 10.614 12.726 16.346 9.388 13.074 14.144 11.692 13.135 13.990 11.284 7.751 8.693 12.512 10.530 9.002 6.541 8.251 10.171 9.579 5.493 10.031 7.532 8.974 7.565 7.864 8.603 8.054 10.383 
8.932 10.603 11.435 14.298 14.136 12.801 12.143 14.461 13.644 13.611 14.840 16.977 11.955 14.272 15.951 15.411 14.522 15.244 18.414 17.772 17.148 16.649 21.134 18.265 18.725 19.545 19.125 15.805 18.448 21.730 18.749 21.198 20.734 20.534 23.237 21.621 18.879 20.844 20.079 19.157 18.693 20.304 16.254 15.318 18.278 15.558 19.067 18.593 14.270 17.064 13.714 16.106 13.280 13.987 13.589 13.258 13.620 14.097 11.669 12.774 12.857 12.626 10.860 14.927 15.363 6.915 10.093 8.452 13.459 13.729 11.221 6.257 5.996 9.220 6.424 3.716 10.283 6.523 5.755 8.931 5.831 
13.359 12.380 11.551 11.239 14.967 8.815 14.586 16.655 17.431 16.873 14.684 15.786 15.918 15.818 15.920 16.179 19.554 16.522 19.056 18.584 22.092 17.172 20.175 18.109 19.620 20.813 17.544 21.574 21.607 19.309 19.297 21.592 18.507 18.477 22.598 19.720 17.027 23.160 16.993 18.760 19.405 19.819 20.620 22.153 19.167 19.070 16.663 17.104 16.012 15.759 15.547 15.984 15.688 13.031 12.379 15.136 12.084 11.932 9.388 14.777 11.318 12.178 9.607 6.978 8.267 10.474 7.990 12.705 8.220 10.379 6.091 9.556 11.843 10.625 7.225 13.090 12.192 8.018 9.542 8.244 6.126 
9.284 12.506 15.065 11.855 16.309 13.409 14.905 14.014 16.368 14.923 18.769 14.407 17.178 16.600 17.371 17.919 16.544 19.558 16.320 20.344 17.031 19.446 24.653 16.698 21.697 21.298 20.344 21.716 22.893 24.195 20.819 22.348 20.770 19.743 13.353 20.769 23.559 22.324 17.868 18.435 22.569 18.454 19.753 17.027 12.748 16.759 20.461 19.384 16.805 17.706 18.450 14.209 11.684 13.571 10.393 14.607 15.137 14.577 12.677 13.026 10.569 10.420 9.475 10.703 11.735 10.240 11.649 10.865 10.231 11.170 9.781 11.827 9.222 9.821 11.974 5.852 7.683 6.970 4.179 11.242 6.945 
15.503 11.504 9.736 12.346 14.831 15.021 18.731 14.221 13.933 12.409 15.882 16.678 18.126 16.986 17.397 15.154 19.449 18.413 21.235 24.125 19.250 23.580 23.656 23.493 26.361 21.764 22.619 24.636 25.949 24.066 21.229 21.302 20.451 21.162 24.877 25.426 25.782 22.910 20.805 22.983 18.991 21.013 21.673 17.349 18.945 17.045 20.707 16.916 18.945 17.507 17.637 14.948 17.982 14.014 18.482 15.223 15.711 15.902 10.959 11.249 12.369 14.402 12.144 13.507 11.298 8.602 10.958 9.704 10.687 11.550 10.336 8.382 9.226 7.221 10.428 8.011 10.165 5.450 8.824 8.939 5.477 
13.292 13.992 8.677 14.399 12.306 17.202 14.751 16.418 17.221 18.846 16.511 12.256 19.923 19.595 20.436 19.532 21.566 21.744 14.658 20.409 19.929 21.732 22.023 22.048 21.594 19.402 22.146 26.532 23.066 19.223 22.699 22.521 22.469 22.912 27.170 23.702 24.051 20.636 20.840 19.833 21.358 22.748 19.706 17.124 21.015 18.256 18.354 20.118 16.715 15.941 18.154 16.740 18.231 21.006 13.207 16.299 16.648 12.764 12.662 15.350 13.913 11.487 11.415 14.777 12.261 11.273 9.272 13.934 13.440 10.752 13.487 9.252 9.417 11.574 11.739 9.256 10.095 7.414 9.261 7.327 9.216 
11.415 14.703 12.866 11.795 12.131 12.840 15.441 19.635 14.584 17.592 16.696 18.628 16.194 21.866 24.831 20.345 17.308 20.335 22.074 22.904 23.800 23.365 23.781 26.129 26.055 24.263 23.719 24.864 24.401 26.170 23.157 25.673 23.998 21.778 23.675 23.112 23.053 21.776 24.740 27.269 24.380 24.825 25.194 20.582 19.599 19.588 20.536 19.696 19.671 19.965 18.401 17.336 16.592 14.485 18.624 16.852 16.389 15.866 12.684 13.742 13.948 15.681 9.035 9.384 10.740 10.877 10.057 10.902 13.599 8.866 12.141 8.231 8.843 6.901 9.822 8.623 7.725 10.927 10.029 8.520 3.140 
16.526 11.800 15.144 14.019 13.002 15.018 18.218 14.293 17.791 17.904 20.396 19.546 16.711 18.393 16.943 25.546 22.255 24.569 21.773 24.134 24.264 22.902 23.792 26.190 24.763 23.987 27.432 23.876 27.560 22.932 26.478 20.797 24.474 28.203 24.730 22.745 23.093 26.127 26.065 18.825 23.816 29.088 22.351 25.753 21.224 19.642 23.304 19.269 18.478 17.961 19.838 17.366 21.782 20.092 19.244 15.991 15.800 16.458 13.434 16.266 11.679 14.361 14.481 15.303 13.519 12.161 10.122 11.925 11.657 10.540 5.852 10.537 10.752 12.070 12.025 10.888 8.860 6.696 8.523 8.590 11.106 
12.123 9.179 13.746 14.781 13.867 18.563 20.211 14.822 20.345 16.621 17.163 21.667 22.867 21.393 18.626 19.823 24.003 20.488 22.493 24.093 25.316 23.665 24.746 30.362 26.235 25.934 25.713 26.611 23.519 23.883 24.426 27.552 24.750 26.123 20.723 25.990 25.981 26.209 27.538 26.326 22.828 22.557 22.765 22.912 26.062 22.514 22.253 23.613 19.093 17.229 19.576 15.808 17.770 12.789 16.722 15.770 16.199 13.851 15.564 16.400 14.916 13.688 13.744 14.585 11.658 13.954 9.609 8.594 7.329 11.835 10.142 7.560 8.632 9.131 10.344 7.208 13.229 9.124 11.597 10.839 3.267 
11.845 9.838 17.062 15.065 13.209 15.312 8.838 15.003 22.061 15.777 18.842 19.993 19.943 21.458 20.002 22.186 22.487 20.781 23.055 21.177 22.606 21.139 25.558 30.650 24.230 25.997 29.985 23.626 26.958 27.617 27.991 27.531 26.105 28.949 26.978 28.378 27.364 28.691 26.186 22.296 24.701 25.965 20.225 22.103 20.900 20.945 24.755 23.502 22.177 17.832 23.155 16.537 17.387 14.996 19.241 14.481 16.391 12.556 15.304 14.274 14.723 16.151 15.609 13.180 19.885 8.277 16.080 14.041 8.226 10.249 6.964 10.305 9.531 10.783 8.410 9.375 8.954 8.519 3.941 8.717 5.328 
16.776 15.139 19.186 14.414 19.463 13.642 21.374 20.385 20.107 18.146 19.297 23.280 21.206 21.853 23.879 23.093 21.685 23.375 23.254 27.020 25.017 28.006 27.030 27.676 28.005 27.082 26.818 27.194 27.702 31.236 30.548 28.314 26.533 27.367 24.236 25.872 27.961 27.421 27.585 23.845 29.014 20.844 24.243 20.084 24.866 23.979 19.731 20.652 22.633 21.273 18.909 18.847 18.254 18.206 15.417 16.847 16.393 13.787 15.188 12.747 15.387 15.942 12.020 12.472 14.100 13.917 8.995 13.217 6.434 7.403 7.548 13.119 8.998 7.488 8.004 9.046 10.743 9.557 10.079 9.392 5.703 
14.400 9.661 13.656 17.742 16.646 16.791 17.591 19.441 17.573 20.587 20.760 24.086 25.711 21.851 19.956 24.223 27.067 25.448 26.319 25.201 29.375 27.147 29.236 27.016 23.242 30.107 28.520 27.182 24.710 30.627 23.905 29.326 30.373 28.161 28.376 26.229 27.035 28.372 27.260 26.355 28.180 25.163 25.414 24.985 24.453 25.643 22.982 23.252 20.831 23.447 18.688 18.445 19.204 19.074 15.598 17.783 19.924 14.710 14.651 15.425 12.185 16.501 14.012 12.716 12.245 12.691 10.340 12.200 8.729 8.584 9.518 12.332 9.737 7.293 10.057 9.304 8.239 10.750 7.319 7.491 9.311 
14.686 14.803 13.007 16.667 15.692 19.068 16.206 20.125 18.936 20.542 22.673 22.353 22.933 23.327 24.376 23.316 24.437 25.518 30.375 28.257 27.698 25.983 28.042 30.489 31.636 29.245 30.750 30.864 29.200 29.550 31.447 31.816 27.568 27.746 29.953 30.888 28.937 31.382 29.054 24.454 26.050 26.927 28.207 24.821 22.986 23.851 24.457 23.333 23.703 19.955 21.873 21.124 25.986 16.307 21.617 18.147 17.156 13.311 17.017 13.154 16.326 15.558 13.047 14.827 12.427 10.095 11.054 9.340 12.421 8.247 11.553 12.759 8.790 11.255 8.322 7.224 6.422 9.637 8.413 10.305 8.605 
14.936 10.676 15.977 19.280 19.401 18.570 18.361 20.415 16.461 23.078 22.429 23.332 21.264 24.740 25.919 25.726 24.594 28.673 28.269 28.496 25.974 28.160 26.869 28.761 31.771 30.686 31.408 29.666 31.357 31.830 32.444 30.388 30.473 27.178 28.890 29.191 26.221 29.604 27.988 31.765 28.379 28.441 30.865 30.976 24.595 27.337 23.628 19.484 20.818 21.152 23.657 20.664 17.449 17.619 17.765 15.742 16.372 21.208 14.586 13.658 16.973 13.223 14.025 14.034 11.478 13.635 16.161 12.318 9.872 9.492 14.441 7.649 9.840 9.895 8.998 7.340 10.012 8.678 4.611 9.803 7.548 
15.499 12.077 12.625 18.950 18.218 19.493 17.470 19.402 21.967 18.481 21.208 20.751 23.727 23.895 24.711 25.177 29.808 26.613 27.166 27.865 28.569 30.629 29.227 28.961 31.644 32.860 28.772 30.623 33.995 32.175 32.250 28.427 33.013 31.356 27.834 31.807 28.315 33.836 28.906 32.167 26.750 31.698 28.999 28.224 24.935 25.739 24.145 21.443 23.789 24.700 22.699 19.262 19.986 19.317 17.084 18.539 19.087 18.470 15.656 15.445 16.114 13.943 14.737 15.251 15.493 14.163 14.309 12.242 11.101 9.851 9.800 9.495 7.557 9.705 9.195 8.644 9.117 12.425 6.971 9.642 9.698 
14.452 15.190 17.699 15.381 19.788 19.481 18.547 21.667 20.897 22.154 21.122 22.987 25.714 22.272 27.499 24.256 27.034 27.447 30.426 30.962 25.208 29.296 28.951 31.927 27.384 32.656 32.198 31.481 32.880 32.581 32.967 33.392 32.348 32.077 31.669 33.650 34.770 33.109 33.769 34.434 32.274 28.211 28.119 26.532 22.436 30.727 26.022 24.644 20.153 23.456 22.613 22.953 22.637 21.578 20.176 18.904 21.434 16.899 15.924 16.496 15.099 16.514 15.895 14.387 15.325 13.503 13.784 14.077 12.894 10.096 13.724 11.007 12.542 7.272 13.420 13.204 8.538 10.765 7.362 8.697 6.259 
15.200 18.944 14.861 16.570 16.745 18.871 19.192 25.243 22.243 21.795 19.690 20.192 23.762 27.619 23.346 28.090 32.481 27.882 28.363 31.773 30.721 29.958 33.760 33.435 30.810 32.870 32.046 37.110 31.806 37.231 34.445 33.978 35.226 34.228 32.794 36.145 33.127 32.431 32.565 31.385 32.444 32.641 28.322 33.492 30.809 29.983 28.369 28.078 27.091 26.628 26.197 23.021 19.004 21.615 20.393 19.331 20.719 21.689 13.953 17.207 16.990 14.353 12.789 15.507 16.191 12.205 10.559 13.051 10.467 8.892 13.741 12.726 7.260 10.025 10.569 9.093 7.215 5.179 8.410 8.568 10.327 
14.295 15.327 16.108 16.399 18.725 20.041 21.114 20.397 20.438 22.076 20.182 23.908 27.301 26.034 27.032 28.033 29.628 34.410 29.173 29.202 35.302 32.612 31.230 36.270 29.379 32.751 38.514 37.197 35.439 36.101 37.954 32.480 36.012 35.818 34.613 33.738 31.943 33.887 32.828 32.177 29.085 29.630 31.277 28.230 28.850 28.941 25.042 23.745 27.948 25.990 23.004 20.038 25.954 25.536 17.110 18.597 19.531 19.397 19.814 18.698 12.410 16.102 14.591 14.759 14.740 12.768 13.402 14.270 14.581 9.756 9.172 11.910 12.374 10.674 8.529 8.565 11.127 8.441 9.664 10.037 7.638 
19.151 16.173 17.507 19.486 20.551 20.082 19.669 22.901 24.898 24.635 29.456 23.444 22.215 27.253 29.817 30.500 30.476 30.764 29.133 31.633 29.517 34.150 35.023 32.939 35.413 37.998 35.234 35.814 34.199 38.685 40.288 36.764 34.976 36.503 39.371 35.941 37.971 32.536 35.053 29.120 36.859 30.732 35.118 32.417 32.119 30.523 28.725 28.080 25.586 28.799 29.394 26.108 22.774 23.605 19.411 21.644 18.636 18.642 20.799 14.696 20.882 18.867 15.413 15.150 16.077 15.140 14.437 14.204 13.095 14.359 10.531 15.794 9.745 10.459 10.652 8.639 8.002 10.856 5.416 12.185 8.853 
15.584 17.641 17.102 17.130 20.074 24.825 21.598 23.888 23.839 25.579 22.371 24.936 24.766 29.654 23.975 28.546 30.708 30.252 30.626 32.887 29.190 33.199 33.860 33.203 34.639 38.779 37.561 36.839 32.809 35.028 39.617 37.294 36.196 35.506 37.415 34.628 34.759 35.803 34.760 33.034 35.651 30.977 32.271 32.862 28.582 31.874 26.305 28.819 32.124 25.835 22.273 23.459 24.928 21.955 24.933 25.823 18.331 22.948 16.361 19.311 17.385 16.634 11.269 17.200 12.231 16.042 14.030 15.589 14.368 14.736 14.393 12.959 10.122 7.017 8.209 8.252 8.023 7.635 8.281 11.454 10.107 
19.115 17.191 17.099 16.058 20.823 15.106 21.263 26.159 24.319 20.630 26.429 24.498 25.778 29.060 31.645 29.135 30.300 31.832 34.883 33.677 36.179 34.139 34.446 34.784 31.797 36.544 38.454 34.970 38.068 36.114 39.796 40.321 34.192 36.336 38.047 39.515 35.396 34.548 35.925 33.865 32.446 34.163 30.879 32.886 31.590 31.833 27.746 32.240 27.421 25.845 26.520 22.004 23.993 24.811 20.784 23.661 22.443 21.908 17.959 18.227 16.607 16.853 16.912 14.898 15.186 14.837 13.718 14.939 15.212 13.916 15.675 12.862 15.795 11.943 12.292 9.502 7.332 10.587 9.157 10.519 10.550 
17.729 19.204 19.092 20.442 20.266 20.893 23.011 26.806 22.457 28.059 30.439 27.801 25.152 27.058 26.844 27.912 29.273 30.745 30.322 33.827 35.730 35.240 37.886 33.672 36.329 39.248 37.822 38.755 40.987 37.681 40.260 39.529 37.623 41.704 39.878 35.267 36.659 41.309 36.485 38.283 39.712 35.689 31.880 34.936 37.598 31.129 32.250 29.621 33.922 29.800 24.613 27.708 22.143 27.848 27.514 21.458 21.183 21.514 18.054 15.096 19.378 18.514 19.840 16.109 16.142 15.127 15.846 12.103 13.336 14.886 12.242 10.227 10.336 13.898 7.156 11.655 11.482 10.066 5.382 8.876 7.459 
18.097 17.394 20.212 24.227 19.256 24.813 21.381 22.077 26.295 24.836 27.948 29.558 25.264 28.854 27.064 31.852 36.522 33.076 37.222 35.683 36.428 32.797 38.275 38.994 42.117 39.831 42.078 39.234 41.791 41.303 40.015 42.484 40.094 38.762 40.745 39.078 40.066 38.312 39.829 33.516 35.860 29.520 38.133 34.168 32.760 28.671 30.722 28.500 31.343 26.511 26.428 29.256 25.682 23.889 26.634 25.241 23.643 20.341 24.654 20.596 19.096 20.885 20.089 19.321 13.763 15.373 15.247 11.322 14.917 14.312 10.276 11.486 8.779 11.269 10.490 8.375 13.310 11.144 12.721 11.385 9.896 
14.044 19.288 19.744 20.669 24.267 21.344 21.309 22.562 25.198 26.882 31.210 28.276 28.289 25.712 34.204 30.219 33.803 30.805 35.056 31.404 35.034 37.286 35.100 38.978 38.781 39.454 41.248 41.410 40.340 40.145 37.372 39.939 39.682 42.488 37.394 36.872 41.233 38.320 41.958 39.939 39.696 35.871 37.566 35.072 32.475 27.951 32.667 33.198 33.161 31.647 25.283 27.900 27.924 24.711 25.248 22.189 22.505 21.697 24.864 23.358 23.300 20.283 18.088 16.148 17.587 16.235 16.455 12.452 13.311 14.138 9.348 12.094 11.972 14.654 10.378 15.360 9.411 13.935 10.393 13.174 5.360 
16.971 20.799 18.067 19.825 24.922 17.462 23.174 21.847 22.653 25.400 26.922 26.564 29.851 30.046 29.283 28.949 32.482 32.482 36.827 34.425 38.347 37.770 37.822 39.544 38.744 41.350 39.665 42.859 41.723 40.679 40.407 42.298 40.557 39.758 40.253 40.298 39.819 38.595 38.167 36.256 40.153 39.310 35.756 35.815 34.420 36.387 31.805 33.924 31.039 31.308 32.462 31.629 24.737 26.372 22.837 23.879 22.135 20.536 20.895 20.709 22.678 17.683 23.121 15.875 19.252 13.689 15.237 13.261 14.506 15.917 15.373 12.191 11.761 12.455 13.370 15.940 5.018 12.805 10.684 6.062 10.020 
17.532 19.948 19.945 20.493 20.644 21.213 23.171 26.203 23.130 26.119 28.368 29.387 30.561 29.871 31.766 32.971 33.582 35.810 35.606 38.577 38.244 37.880 41.249 38.431 38.286 42.517 42.109 44.706 40.231 43.590 48.039 43.946 41.958 43.813 46.029 39.111 42.097 37.421 38.896 37.534 36.717 35.806 36.960 33.806 36.430 35.174 35.411 33.345 32.822 32.463 28.587 27.591 32.209 27.750 28.768 25.800 24.628 24.340 21.260 18.039 22.258 22.941 19.681 18.365 19.089 14.908 16.076 16.448 15.914 14.843 15.781 15.901 10.824 14.200 9.102 7.456 9.937 10.570 11.201 10.109 11.972 
22.231 17.658 22.132 23.945 20.572 21.228 23.880 28.061 24.567 29.792 28.422 28.574 31.746 29.741 32.686 30.846 33.140 36.145 34.764 36.517 38.986 42.754 40.137 39.850 40.388 39.087 41.770 37.801 42.766 38.519 41.826 45.229 42.603 43.917 42.620 43.090 41.605 44.597 44.979 39.952 37.362 43.011 38.847 37.949 34.802 38.776 34.292 33.362 29.681 28.710 27.597 32.686 30.641 29.392 22.000 25.740 26.211 20.357 20.028 21.614 21.526 19.233 17.783 19.324 18.492 17.818 14.863 19.648 11.341 10.689 10.660 10.521 14.039 15.480 13.668 11.957 13.513 14.335 9.944 7.774 11.878 
16.829 19.447 21.048 21.795 26.721 21.243 26.512 21.813 26.440 29.340 30.970 31.065 31.728 29.378 33.822 38.853 34.203 36.116 36.540 37.364 36.071 43.687 37.647 37.547 43.139 44.829 43.904 43.039 42.592 45.582 42.432 45.116 45.362 41.821 42.482 45.322 44.717 43.218 40.141 43.902 39.339 40.703 39.816 34.860 38.672 33.157 34.753 32.428 34.092 30.424 32.865 31.743 30.622 25.885 30.771 27.197 25.470 25.904 24.300 23.069 22.983 17.932 20.175 18.279 18.815 16.942 17.887 16.688 15.759 14.206 14.339 15.371 12.906 12.199 11.785 11.697 10.884 13.107 9.578 8.378 12.521 
16.111 19.685 21.128 20.762 23.951 22.626 28.264 26.359 31.446 27.859 30.261 31.299 30.554 32.183 36.400 35.457 35.749 37.436 33.926 38.545 43.483 42.932 42.896 42.444 41.370 40.831 45.810 46.804 42.228 43.285 43.630 44.805 44.559 43.295 40.889 43.439 39.735 44.802 42.273 42.508 38.968 38.911 36.996 36.543 37.996 37.378 36.872 35.654 35.552 32.014 31.889 30.840 30.488 29.757 31.005 19.796 26.200 24.004 27.504 21.230 21.271 23.104 22.153 22.244 14.468 16.863 18.863 16.009 17.618 12.696 11.856 17.892 17.820 12.287 10.503 10.262 13.000 7.034 12.322 15.365 9.862 
21.183 17.910 20.188 22.204 21.248 24.922 25.489 27.517 27.269 28.558 29.907 30.864 33.093 34.739 34.262 34.960 38.423 36.970 40.080 38.618 40.062 41.263 44.511 43.761 43.182 40.943 42.099 45.392 46.201 42.946 44.390 45.841 44.879 45.525 46.323 44.212 44.747 42.001 44.124 44.216 41.979 42.925 41.482 36.261 41.963 38.877 37.099 35.012 37.904 33.323 33.420 31.767 29.855 30.667 30.314 28.444 23.980 25.448 27.340 22.519 22.172 21.016 19.991 20.274 22.040 15.971 16.781 22.003 13.117 12.097 17.421 15.672 13.526 12.635 15.832 12.922 9.854 7.992 12.999 11.953 8.368 
20.146 20.666 19.161 24.059 25.066 19.588 28.349 26.860 24.545 30.021 28.453 33.618 30.557 31.884 33.302 33.118 39.518 34.744 38.843 39.071 40.859 40.140 46.213 41.397 39.437 45.358 46.100 40.777 43.003 47.069 43.281 41.785 42.312 45.901 44.484 44.757 44.575 48.569 41.426 39.030 40.549 40.073 39.503 39.391 39.466 39.985 37.322 35.813 35.261 36.075 29.470 33.155 32.082 32.883 26.617 27.779 25.378 27.255 23.056 26.749 22.046 25.233 17.998 20.513 19.502 20.260 17.660 16.885 15.492 20.024 20.045 14.706 13.850 10.828 14.999 14.210 11.341 10.988 12.700 14.593 11.431 
18.941 18.317 19.479 22.031 24.242 25.219 25.784 28.202 27.398 29.331 30.881 32.567 29.007 34.411 34.839 35.508 34.847 35.312 37.568 38.868 42.480 40.863 42.264 45.482 43.327 45.536 47.428 43.635 48.806 47.184 45.959 42.946 43.065 47.912 45.657 41.508 45.544 43.621 42.916 42.506 43.850 44.903 42.611 41.637 38.961 38.221 35.886 34.705 36.111 29.388 32.245 31.683 34.335 28.768 29.753 31.022 27.740 26.119 24.871 24.238 25.806 21.613 20.434 22.510 18.660 23.176 18.618 16.335 20.946 16.779 16.797 12.188 15.446 13.283 11.272 10.911 11.053 12.734 11.162 11.074 12.098 
19.935 22.296 25.011 21.207 25.438 22.422 25.324 24.593 28.122 26.187 29.711 32.717 29.052 33.458 37.842 35.786 36.542 39.077 38.887 39.168 43.291 42.094 44.772 43.985 41.977 46.112 43.900 45.084 47.198 47.768 45.303 43.212 48.570 44.474 48.780 49.248 48.698 44.513 47.621 44.757 44.946 45.075 39.928 43.844 41.111 37.714 37.766 36.473 36.237 38.902 42.682 32.644 30.579 27.383 28.776 31.892 27.132 30.997 25.187 21.947 24.580 20.331 20.920 20.343 18.023 20.475 18.932 18.399 17.093 17.253 17.640 17.162 18.340 16.124 17.346 12.290 11.633 12.200 9.152 9.201 9.104 
19.181 25.463 23.259 19.998 25.421 23.657 25.879 29.326 27.462 32.016 31.329 29.761 30.830 34.933 40.102 35.358 38.827 40.196 41.155 42.883 43.309 37.163 45.940 46.736 46.617 45.396 47.610 44.179 46.793 44.714 46.577 49.044 46.584 48.942 46.274 45.560 43.822 44.146 46.150 45.579 44.936 42.878 45.915 42.476 40.990 39.411 38.449 32.867 36.931 35.305 32.962 32.985 30.541 32.492 32.225 32.073 29.215 28.138 26.339 25.496 25.521 21.398 23.563 20.436 21.486 20.353 18.575 17.215 17.760 17.910 17.011 16.985 15.885 15.768 14.564 9.553 12.274 11.815 16.570 10.250 11.498 
21.958 18.465 21.513 19.855 21.693 25.054 21.097 27.662 27.951 30.425 30.752 34.172 31.936 35.237 30.034 36.866 37.900 38.330 40.309 38.990 45.051 45.644 45.181 42.846 46.171 45.018 44.716 49.949 46.212 49.249 47.892 50.097 50.381 50.122 46.368 46.681 49.540 47.262 46.110 43.908 43.017 41.896 43.188 44.848 42.945 41.752 39.903 44.302 37.882 35.535 29.801 34.360 31.561 33.679 32.903 29.072 31.355 28.378 28.389 26.221 25.305 23.435 24.193 23.525 23.052 18.378 20.745 17.286 16.487 18.749 17.737 15.337 15.894 17.125 14.003 10.525 9.654 10.326 12.164 14.432 8.525 
17.549 21.883 20.038 24.632 23.046 23.950 26.432 24.221 29.435 27.847 26.890 32.930 35.462 31.550 37.376 34.126 40.600 34.855 38.555 37.635 38.227 43.868 43.196 46.376 41.551 45.198 44.775 44.664 45.831 51.310 46.772 45.042 45.798 45.508 43.110 49.387 45.299 50.814 45.032 46.459 48.458 44.154 46.352 46.762 44.443 41.822 39.804 37.246 39.419 37.256 34.624 36.524 35.786 32.505 34.414 34.181 30.185 27.882 28.247 29.142 22.418 26.013 22.673 21.629 20.188 23.894 17.776 23.036 17.514 15.730 16.935 16.438 13.652 14.231 16.728 17.820 11.286 13.669 10.440 13.109 11.189 
21.360 19.704 20.238 27.692 22.923 22.979 25.977 27.566 30.015 27.182 31.167 32.062 34.643 36.521 32.301 37.381 35.742 40.221 39.755 42.279 42.930 43.552 44.383 44.805 47.696 42.288 49.976 50.334 46.846 46.081 48.027 45.127 47.469 50.508 47.588 49.100 45.687 46.950 43.097 45.566 45.682 43.000 44.229 44.919 44.073 40.604 39.359 38.880 38.750 36.626 35.195 34.894 36.398 33.902 28.566 32.306 30.966 34.150 27.223 23.385 26.971 22.754 23.450 22.005 21.643 24.224 18.472 21.016 20.402 18.336 15.975 16.032 14.625 17.636 14.117 13.477 12.655 11.586 15.818 12.165 10.742 
20.935 23.356 22.610 19.299 27.190 24.809 23.942 27.011 27.405 27.723 27.455 28.298 32.519 33.450 36.651 37.669 39.154 38.662 40.213 41.536 42.615 42.091 44.236 46.517 45.140 46.571 46.246 45.017 47.829 48.372 48.057 52.789 52.132 49.181 46.936 49.558 48.074 48.641 46.268 46.705 48.983 42.710 43.961 42.204 41.016 43.811 41.380 43.232 38.768 35.185 38.196 37.175 33.399 34.259 32.164 31.540 32.036 27.508 29.066 26.851 27.117 27.330 22.933 24.641 25.725 26.951 20.248 20.096 20.158 20.122 21.180 18.335 15.696 15.251 14.499 14.958 11.709 14.291 14.180 9.339 12.885 
21.213 18.700 21.469 23.382 23.149 25.429 27.894 25.970 33.687 33.773 34.268 34.494 33.113 35.318 35.517 37.224 40.067 41.108 40.276 39.809 43.199 41.022 44.173 45.532 46.350 46.797 45.166 48.962 48.910 48.291 47.437 47.048 50.026 50.583 49.043 47.121 46.263 49.520 45.252 49.492 44.466 43.835 42.547 40.137 39.673 42.178 42.417 40.040 40.149 38.494 36.516 37.556 35.345 34.780 32.650 28.932 33.427 29.955 32.194 30.097 27.864 29.448 24.780 25.266 26.892 22.193 21.316 23.120 23.117 16.049 20.923 18.214 19.809 19.139 18.497 13.368 17.112 12.956 15.457 14.629 14.313 
18.243 22.724 23.426 24.707 23.373 21.476 26.366 28.641 26.530 30.194 30.225 32.778 34.748 34.901 34.962 35.519 37.820 38.879 44.784 42.572 42.944 46.236 42.163 43.225 46.188 43.429 47.715 45.376 49.161 45.744 48.435 48.533 48.153 49.508 48.251 47.010 49.844 47.919 46.553 46.091 44.224 42.147 45.334 46.985 43.172 43.367 42.504 41.436 42.123 42.944 35.864 38.256 36.607 32.378 36.241 34.660 31.001 29.642 33.063 28.819 28.536 26.235 30.277 23.084 23.775 24.721 23.358 21.811 16.715 22.578 20.638 23.088 18.362 18.730 17.572 14.996 8.792 14.019 12.778 14.049 15.259 
20.736 22.089 20.628 23.011 25.902 19.622 24.613 26.398 28.966 31.404 28.978 34.316 35.496 34.332 35.544 35.737 37.942 39.703 40.671 40.195 44.391 43.918 43.163 45.585 45.499 46.868 49.025 51.729 45.336 46.633 46.847 45.190 47.591 47.740 45.021 52.594 46.773 48.937 47.915 48.761 48.656 51.472 44.268 44.711 45.177 43.370 43.650 37.382 41.671 36.212 39.442 39.637 38.074 36.705 36.119 32.421 31.739 32.560 26.275 28.034 30.219 29.812 29.104 26.767 25.031 24.164 22.401 22.023 21.970 18.192 13.388 18.905 16.827 15.066 16.884 11.780 9.983 15.731 12.136 10.260 14.678 
19.897 22.731 21.110 21.861 19.638 22.737 23.547 29.062 28.981 26.593 32.640 32.061 30.796 34.498 39.582 37.983 39.050 36.034 39.967 40.518 42.773 43.615 46.226 44.557 46.153 45.537 47.692 50.804 47.282 45.436 48.566 46.523 50.868 51.108 49.949 49.880 49.657 47.615 47.862 46.553 48.744 49.088 46.710 46.091 44.912 42.582 43.971 39.032 38.590 41.065 37.584 38.008 39.240 39.449 37.262 37.200 35.099 33.231 32.782 30.867 24.227 29.577 27.238 27.266 22.974 23.145 23.657 22.758 21.117 19.550 22.218 20.217 18.238 15.945 18.206 17.775 15.078 15.153 16.057 14.833 12.406 
17.402 18.566 20.706 24.218 26.551 25.583 27.268 26.060 27.588 30.727 28.828 27.023 34.038 33.216 34.751 36.262 38.204 39.300 38.635 43.427 39.567 43.320 44.232 44.251 44.945 45.247 48.522 50.373 46.709 50.080 47.744 47.093 46.684 47.507 49.150 47.805 47.801 48.194 45.695 44.076 46.548 46.158 48.012 47.626 45.338 42.295 42.199 40.538 41.052 40.645 42.354 38.833 37.939 36.369 36.061 35.720 30.441 34.036 30.099 26.552 25.403 29.711 28.977 27.669 23.356 25.916 25.151 24.925 24.996 20.356 22.534 20.119 23.461 19.794 18.798 15.476 15.467 14.582 15.437 16.407 18.038 
18.666 25.009 22.120 18.915 24.002 23.812 24.281 27.645 26.597 27.802 29.821 32.784 35.131 35.531 39.960 35.460 37.057 40.320 41.111 40.821 43.224 41.747 42.492 47.112 47.038 44.935 42.917 44.440 46.790 48.496 48.742 50.104 51.171 44.181 51.389 47.901 50.693 50.221 47.146 44.575 49.676 47.509 43.950 45.489 44.159 43.613 41.630 41.193 41.857 35.812 42.131 35.695 40.679 36.854 33.809 37.740 34.621 31.551 31.241 29.616 29.510 26.566 31.806 26.256 28.326 24.549 26.531 23.818 20.668 21.313 20.151 22.633 19.693 19.893 17.401 18.430 15.215 14.949 13.295 14.891 17.157 
16.115 19.608 18.362 20.084 24.950 26.034 25.888 22.615 29.537 26.784 31.339 34.734 29.503 36.875 36.276 34.435 34.742 37.210 40.744 37.041 37.301 41.688 42.657 44.754 47.315 44.606 47.517 44.722 51.425 46.035 51.082 52.160 47.357 49.345 49.416 49.557 45.022 52.018 48.435 48.259 45.749 44.675 47.565 45.875 41.945 44.064 41.663 44.105 43.058 43.689 37.769 38.117 37.835 35.892 38.754 38.067 36.930 30.424 31.984 32.801 32.727 30.178 28.960 32.608 26.617 24.038 25.579 25.747 23.026 21.643 23.201 19.301 17.948 18.138 18.158 18.580 15.792 16.823 16.200 15.974 14.517 
21.013 17.496 19.491 21.466 21.826 26.945 23.618 28.308 27.612 29.138 30.582 30.546 30.406 32.581 36.503 32.755 38.685 38.843 39.870 39.930 41.900 42.747 42.582 41.494 44.414 44.299 46.796 48.789 49.068 43.400 46.988 50.116 47.453 48.298 49.696 51.478 49.015 47.160 48.230 44.318 50.359 46.659 46.782 43.083 42.220 42.376 40.826 46.590 41.376 39.480 40.876 41.284 40.315 37.528 34.880 36.046 39.573 31.426 34.374 32.533 32.844 31.791 28.637 31.753 26.229 24.944 26.318 23.535 24.519 23.733 17.796 20.775 21.271 17.358 19.035 18.191 16.351 16.378 14.898 13.415 11.961 
17.615 24.291 23.023 23.725 21.590 24.774 24.549 28.731 29.523 28.734 32.097 30.469 30.026 29.530 33.667 37.900 37.888 35.218 37.508 39.366 39.360 40.054 40.622 43.380 39.934 46.628 43.347 47.797 47.640 45.082 47.429 47.604 47.443 47.094 46.330 49.706 48.030 50.593 46.204 48.415 47.928 46.542 42.524 49.630 49.526 43.112 41.402 43.954 41.168 46.074 45.592 42.918 39.388 40.459 36.822 37.387 32.125 33.379 31.902 29.661 32.206 31.913 31.605 26.280 29.858 25.631 29.281 25.835 25.910 26.635 22.848 23.127 24.523 17.828 22.950 19.497 19.977 17.468 13.284 15.877 12.940 
18.094 17.582 20.451 21.866 20.474 27.333 23.130 26.196 25.376 30.226 31.174 33.879 33.386 34.204 32.911 37.238 37.750 36.790 38.694 35.809 40.603 41.796 38.877 44.824 41.405 46.495 49.809 44.378 46.227 47.702 48.188 46.002 42.775 44.869 46.475 46.471 47.104 50.227 49.020 47.388 45.631 45.391 47.803 46.444 43.135 46.888 42.984 43.437 44.530 42.857 39.969 41.349 38.753 35.028 40.119 38.254 37.607 32.344 33.930 32.156 32.601 33.429 31.393 29.680 27.881 27.767 27.349 28.101 22.851 26.832 21.846 20.908 22.693 17.684 17.325 18.902 19.061 20.596 15.516 15.610 14.594 
19.159 20.385 19.298 21.266 20.563 20.729 23.818 25.854 29.227 27.743 26.603 27.115 36.360 33.478 36.764 35.900 33.090 38.658 40.103 38.391 39.662 42.411 41.707 42.264 46.507 42.246 42.645 43.373 45.900 47.573 46.334 44.260 46.937 46.067 48.066 49.453 48.353 45.967 49.181 46.402 45.458 45.554 42.756 46.364 47.767 41.682 43.098 44.355 43.336 39.036 41.025 41.150 38.878 39.372 35.237 35.463 36.377 33.449 29.993 33.799 35.134 31.334 29.492 33.771 27.144 33.432 24.515 28.614 27.136 24.831 25.262 23.659 23.902 21.490 22.600 17.435 22.049 15.127 16.456 19.743 18.046 
18.761 21.301 21.709 21.171 24.511 22.353 23.665 24.313 22.604 26.590 25.241 27.519 30.329 30.579 33.857 35.938 38.102 33.740 38.746 34.439 36.680 39.014 34.748 42.448 43.942 45.366 46.584 45.818 44.084 45.580 43.399 46.405 48.706 48.501 45.893 45.571 46.898 46.489 44.853 45.249 47.966 45.717 48.961 44.187 46.413 43.422 43.672 43.879 44.122 38.458 40.432 38.959 39.576 39.371 43.660 37.163 40.758 40.506 34.310 36.529 31.499 28.844 30.936 31.322 29.858 31.773 23.979 27.126 27.141 27.363 24.601 23.909 21.696 21.971 19.453 18.106 19.879 20.737 15.077 15.239 19.934 
20.366 21.077 18.872 23.902 17.621 23.538 22.163 28.581 25.436 25.235 27.349 29.920 26.987 32.962 32.809 37.057 36.816 32.427 36.970 35.115 37.387 34.315 38.124 40.316 43.012 44.592 45.981 43.344 44.240 45.929 46.042 44.774 47.323 48.260 45.277 43.617 49.035 47.170 48.901 45.442 46.159 43.995 48.141 46.820 43.527 46.318 46.152 44.047 42.385 40.034 39.934 42.188 39.474 39.284 40.066 37.198 36.794 38.223 37.883 33.709 32.990 34.538 30.422 29.324 31.965 29.512 32.324 27.683 33.423 22.469 24.998 24.853 23.125 23.393 21.643 26.342 20.075 19.598 18.232 16.959 18.423 
19.519 17.023 18.004 23.589 19.495 22.065 22.324 21.946 22.966 25.866 25.398 29.158 36.077 35.574 33.133 36.516 35.978 33.908 37.617 40.506 37.136 41.614 42.336 40.475 44.050 41.820 41.201 42.404 43.208 41.158 45.810 46.442 46.429 43.873 48.443 43.674 46.516 47.159 46.185 49.533 45.789 41.325 41.823 44.355 45.694 43.008 44.261 41.787 43.989 39.377 42.493 42.471 43.506 43.306 37.716 40.667 35.449 39.558 34.998 34.824 34.332 37.147 34.464 36.606 30.442 28.316 29.482 29.878 29.637 25.675 25.792 24.305 23.778 24.631 16.515 23.659 20.415 15.102 17.309 21.166 14.505 
19.947 18.296 21.675 16.978 22.091 19.462 21.872 26.234 26.284 28.890 25.735 29.147 31.801 29.105 29.289 31.423 32.138 35.535 33.054 39.457 35.797 38.465 36.887 37.217 41.761 41.738 43.533 42.685 45.283 39.833 42.472 45.302 45.297 46.017 44.804 44.044 44.572 48.777 44.463 41.498 46.792 43.423 44.020 45.044 44.440 45.977 42.948 44.418 41.201 41.500 43.274 39.201 37.582 42.284 39.446 40.409 41.856 37.422 38.183 38.304 35.945 33.253 31.351 32.710 32.587 30.995 30.163 29.476 27.857 28.093 27.920 23.507 26.223 18.751 20.127 21.124 21.555 19.000 17.766 19.086 16.864 
16.839 16.627 18.260 20.362 21.615 19.478 23.687 23.890 23.474 25.059 24.976 27.447 23.689 30.509 28.831 29.660 30.990 34.527 40.127 33.661 34.421 40.445 40.743 38.819 39.918 42.567 41.537 39.528 40.706 41.736 43.002 45.314 45.963 45.281 42.899 41.049 44.639 46.293 44.385 42.904 44.706 47.736 45.165 44.641 45.646 44.137 39.628 43.540 42.706 39.543 42.886 42.217 39.532 40.454 41.638 37.842 36.164 38.882 33.323 37.859 32.328 31.597 33.687 29.744 31.338 31.137 34.875 29.223 31.800 27.428 22.887 24.905 26.530 23.497 21.072 20.849 22.029 20.203 16.659 19.244 17.885 
18.289 18.410 20.423 19.441 25.059 16.637 24.562 19.383 23.507 28.210 26.919 28.528 31.306 30.810 33.425 31.267 32.221 33.026 31.516 34.291 33.076 36.136 38.805 32.734 37.771 42.351 37.625 43.609 41.217 41.406 43.269 46.382 43.613 40.131 46.478 50.574 45.145 43.733 42.958 42.927 45.806 43.729 48.140 45.210 44.486 46.430 45.304 42.520 41.708 39.504 44.409 40.837 43.577 39.464 39.209 40.969 39.273 40.487 41.195 34.231 34.433 37.079 33.412 36.757 31.632 29.746 32.988 30.156 27.279 30.760 26.146 27.507 26.798 22.563 21.982 22.887 17.830 20.754 21.795 18.568 15.499 
17.157 18.770 16.324 18.768 17.181 20.834 21.950 20.159 23.565 23.763 25.357 27.295 29.637 28.906 27.419 29.493 30.321 34.311 35.719 32.924 34.451 38.791 37.061 36.339 38.953 38.944 38.138 38.371 38.986 38.540 39.349 42.660 40.740 46.228 41.937 40.697 41.283 44.484 43.822 41.799 42.837 43.677 45.913 44.782 44.867 39.950 44.154 44.915 42.029 41.522 42.200 40.264 44.662 37.565 39.119 39.311 40.438 38.680 40.315 38.525 38.406 32.282 36.917 37.086 33.903 31.040 31.252 32.210 30.185 30.165 26.389 26.569 27.284 24.594 20.988 27.207 22.413 21.074 16.823 18.585 20.407 
18.182 16.942 14.498 20.070 20.479 19.500 20.431 21.792 25.569 22.958 22.406 23.844 27.738 30.266 26.232 29.065 32.107 31.124 33.394 31.860 34.034 34.516 35.372 33.597 35.175 40.460 39.583 35.359 43.462 44.630 42.110 40.342 42.893 41.715 42.882 44.201 42.430 46.035 41.990 44.107 44.658 43.893 40.852 41.342 44.624 43.561 42.508 40.212 42.203 41.617 38.723 39.897 41.923 38.706 38.591 41.219 39.427 38.552 36.844 36.848 39.915 36.656 35.039 32.209 32.801 34.032 29.701 32.752 29.271 31.120 26.977 28.639 28.769 27.272 24.459 24.193 21.916 18.816 15.601 21.268 16.541 
15.125 18.400 16.123 17.725 18.949 15.625 22.751 18.708 22.191 25.303 23.107 24.198 27.149 27.559 29.524 30.710 28.516 32.297 33.007 32.838 29.605 35.819 37.546 35.658 36.314 36.149 38.620 37.178 39.064 40.135 39.510 44.967 41.866 42.161 40.963 39.111 43.899 42.762 42.163 43.860 43.121 42.176 43.310 44.100 40.391 48.029 42.113 43.452 41.176 40.564 43.395 42.266 40.787 41.670 39.853 38.045 43.341 38.280 40.707 34.824 33.459 37.113 32.870 35.987 32.403 32.337 33.413 30.856 29.500 29.068 26.792 28.924 24.765 25.320 25.967 25.636 22.363 19.185 18.848 20.224 17.516 
14.110 15.239 18.375 18.273 18.955 17.982 19.022 23.682 23.838 24.260 24.185 25.034 23.329 31.539 25.970 26.999 27.835 28.223 35.167 35.835 33.342 30.568 36.031 36.249 34.946 39.019 37.425 36.030 38.893 41.394 38.674 41.128 41.016 39.775 41.128 42.199 42.081 46.685 43.180 42.365 40.210 40.179 45.199 41.947 41.504 40.152 43.622 47.352 45.868 40.949 41.835 43.011 43.041 39.646 38.702 42.954 39.179 37.573 37.718 37.226 38.735 37.146 33.602 34.414 33.128 33.206 32.394 32.874 30.052 30.088 26.083 28.206 29.685 24.520 25.157 21.963 21.246 21.956 21.852 15.612 17.550 
15.459 14.572 17.099 15.404 16.451 21.587 16.914 20.940 20.836 20.154 24.617 25.131 22.804 26.815 26.657 28.170 27.997 28.583 29.375 32.185 30.848 32.612 34.568 35.263 32.666 35.731 35.285 34.658 34.927 37.953 35.628 40.488 37.195 41.660 40.690 40.070 40.629 40.995 38.363 39.822 38.680 42.966 45.164 46.758 39.769 43.274 41.106 40.396 44.732 41.869 46.053 42.769 45.579 42.842 41.831 41.236 40.348 38.455 37.298 38.850 36.659 33.890 35.880 36.746 32.631 34.362 30.415 28.838 32.249 31.605 29.194 26.639 23.063 28.242 22.987 22.966 25.550 19.330 17.845 16.501 19.893 
15.744 15.936 15.222 17.596 17.307 21.387 19.191 23.508 19.833 23.950 22.609 20.509 22.090 23.206 28.569 25.953 26.675 27.562 29.058 31.638 32.988 31.924 33.107 31.681 36.433 34.778 34.148 31.925 37.373 38.013 35.427 36.765 38.094 39.354 39.194 41.646 38.580 39.645 42.713 40.211 37.684 39.471 40.692 40.460 42.735 41.288 44.098 41.643 41.166 40.980 42.212 39.143 43.703 40.438 46.887 38.911 40.697 38.578 40.731 38.133 38.654 35.686 36.807 35.721 33.126 33.605 32.914 32.602 30.644 32.603 28.650 29.040 25.872 26.440 25.056 22.310 21.713 24.744 22.245 20.722 18.464 
12.325 14.395 17.065 18.462 19.357 14.256 17.564 18.427 18.074 19.988 23.639 22.757 23.940 24.099 22.138 25.442 26.866 25.731 26.754 32.571 28.748 33.210 31.092 33.369 32.393 34.792 33.840 32.389 37.110 38.456 38.741 37.923 36.560 41.387 40.192 34.624 41.228 39.240 40.546 39.533 38.652 40.849 41.029 39.905 42.820 39.225 45.603 42.136 41.653 39.946 40.957 41.656 43.103 44.329 37.702 38.757 39.017 39.316 36.847 37.962 38.714 33.980 37.966 36.312 34.556 31.624 34.193 33.096 32.453 30.369 28.810 30.361 30.231 26.568 27.065 26.993 22.959 18.731 21.920 19.631 18.251 
15.896 13.089 15.523 18.246 13.610 18.221 17.124 18.932 21.106 19.605 24.142 21.801 23.285 25.998 23.439 24.472 25.552 31.543 24.496 27.534 30.148 26.940 33.125 32.131 35.998 29.831 30.435 32.155 33.825 38.080 34.717 36.097 35.204 42.911 36.349 39.473 36.061 39.829 40.602 42.013 42.347 43.454 39.379 39.394 41.781 40.456 41.095 40.461 41.846 40.998 43.088 38.175 43.299 41.229 41.047 39.066 40.186 38.172 38.223 40.659 33.152 37.662 38.245 32.628 32.955 35.729 34.438 32.621 29.703 32.778 29.082 27.470 25.564 25.033 25.699 25.169 21.733 19.525 25.068 20.750 22.092 
15.503 13.128 16.501 17.150 16.261 15.392 16.221 18.873 18.746 19.496 19.308 21.277 19.077 21.134 21.651 23.706 21.157 26.800 26.681 29.645 29.283 31.454 30.289 31.741 35.512 30.927 33.388 35.647 37.896 34.166 32.956 35.876 37.922 38.454 33.517 36.556 37.212 40.604 40.874 37.509 42.204 38.832 39.599 36.370 43.277 43.099 40.359 38.404 43.691 44.205 43.158 39.993 38.683 43.298 39.781 40.338 36.815 39.126 38.863 41.624 36.833 39.815 37.875 33.244 32.160 32.008 33.753 31.951 29.904 30.853 30.450 27.081 32.525 27.222 27.953 25.086 25.496 23.291 22.714 26.820 15.926 
15.236 15.214 20.428 16.134 16.288 15.121 18.359 19.876 17.067 17.548 19.345 20.058 23.817 18.446 24.507 20.748 23.702 20.930 24.039 27.412 28.198 31.946 24.358 32.462 31.520 26.125 33.843 33.769 33.404 33.179 34.113 36.206 40.282 32.883 34.830 36.114 33.582 38.621 37.252 38.205 37.936 38.403 41.671 40.419 38.763 39.740 42.422 42.751 40.801 37.896 41.954 35.493 41.325 42.512 39.580 36.921 39.528 39.348 35.172 36.732 42.765 36.217 33.916 36.002 36.155 36.129 33.397 33.540 32.341 29.884 29.057 27.054 26.338 27.261 28.140 22.947 22.759 20.195 18.911 20.843 18.133 
10.511 12.545 15.062 15.176 13.844 13.666 16.631 16.997 22.195 21.255 17.133 18.871 16.104 19.959 17.725 23.080 23.044 22.497 22.975 27.694 31.938 30.189 31.414 31.717 28.714 25.625 29.862 30.334 31.680 30.923 34.261 33.799 34.703 33.687 31.947 31.539 35.111 38.041 38.260 36.873 39.582 38.239 41.221 40.631 36.783 36.885 40.451 36.144 40.508 40.847 41.562 39.139 41.392 39.079 37.362 40.833 39.223 40.170 33.762 35.023 38.111 36.980 36.774 34.179 36.751 33.917 33.643 32.215 31.977 32.069 27.160 29.673 27.270 25.732 28.470 22.962 19.296 21.132 20.708 22.367 16.338 
12.861 13.126 12.166 12.687 15.271 12.623 15.147 20.231 18.074 18.036 15.992 18.444 21.569 20.034 24.625 20.261 26.122 22.905 25.218 22.748 25.316 25.965 28.588 27.075 27.402 25.427 31.652 28.567 30.993 31.138 33.411 27.518 36.034 32.686 29.442 35.345 34.185 38.691 32.898 37.743 36.848 35.685 38.990 38.948 36.197 40.040 39.481 38.211 43.716 38.957 38.464 41.046 37.988 40.000 41.573 39.426 40.262 42.322 40.941 36.667 42.583 36.265 39.106 36.541 33.927 34.996 33.996 33.818 31.197 30.673 30.432 27.351 26.946 27.074 23.019 24.804 27.031 22.860 19.597 22.282 17.592 
12.134 14.078 13.824 12.282 12.045 13.873 17.883 20.479 15.601 19.224 19.033 17.526 15.725 18.727 22.695 22.844 20.841 25.559 24.441 22.706 21.714 23.868 26.559 29.884 26.448 28.687 29.662 29.439 29.050 29.383 33.194 37.703 33.131 31.520 34.628 34.229 34.886 34.382 38.041 35.369 34.948 35.747 35.529 35.543 38.798 36.267 43.191 40.557 40.120 41.074 35.200 38.059 42.937 38.233 39.110 37.520 39.866 41.009 37.580 37.036 36.047 36.003 35.901 34.510 31.185 30.652 31.960 34.632 33.168 27.209 29.824 31.544 28.090 25.711 25.329 21.426 24.874 19.381 18.706 23.891 19.685 
10.749 9.514 13.153 12.304 14.321 18.246 20.760 17.457 16.371 19.375 20.443 20.251 20.927 17.908 21.112 19.760 21.979 25.483 22.816 20.835 25.887 27.028 23.859 25.510 30.055 29.397 25.194 31.320 29.166 31.563 30.543 31.379 32.806 31.024 32.273 30.634 34.442 34.155 34.221 34.048 33.165 34.856 36.547 37.057 39.323 36.019 40.622 36.926 36.788 37.884 40.769 38.621 38.832 36.599 42.165 36.696 36.813 37.351 37.412 34.357 32.288 35.993 39.288 34.350 33.670 34.770 34.124 32.415 30.505 31.931 31.501 24.646 32.171 24.479 25.336 23.675 21.944 25.660 20.735 23.492 21.236 
10.458 9.835 11.274 14.327 16.782 14.928 16.325 13.377 19.960 13.552 14.045 17.514 16.209 20.982 18.363 17.049 19.072 20.689 22.195 20.107 26.511 24.528 24.516 25.792 24.040 26.400 27.975 23.945 26.924 28.570 29.110 31.263 26.906 29.614 28.565 31.918 31.727 32.891 36.750 35.013 32.619 35.219 38.191 35.221 36.726 35.328 36.390 36.826 34.158 37.475 39.777 41.784 34.418 39.834 35.038 39.082 36.454 32.965 35.587 30.948 39.369 37.608 32.672 35.753 38.143 33.079 30.801 33.540 27.762 26.310 29.969 30.588 24.367 26.938 22.347 22.585 20.075 25.100 21.280 18.307 16.333 
9.655 10.229 9.887 14.786 12.149 11.353 10.973 14.029 14.921 15.995 15.685 17.212 14.685 20.728 21.320 20.771 21.974 21.770 21.806 21.117 22.922 22.289 25.165 24.436 27.644 24.384 25.103 24.755 28.371 26.015 31.668 31.894 27.344 30.978 29.416 31.312 32.437 27.702 34.110 33.988 29.175 34.330 33.550 34.668 36.650 32.656 36.030 36.125 34.007 36.583 36.258 38.280 37.276 36.912 37.143 41.990 38.060 35.248 38.532 37.795 36.185 37.917 35.843 32.005 34.128 34.074 32.801 35.380 32.669 35.232 28.207 25.359 23.393 27.292 25.914 23.113 24.735 19.506 22.786 22.216 17.392 
10.029 9.073 11.449 15.607 13.997 12.147 16.301 14.417 14.754 18.176 15.728 17.670 20.778 16.091 19.774 19.780 22.983 16.379 19.046 19.126 20.964 20.832 22.286 27.165 19.831 29.263 25.230 24.374 25.265 25.870 29.168 30.275 28.854 30.944 31.143 32.912 31.484 30.406 29.912 33.198 33.342 30.898 33.544 34.665 35.471 33.431 31.618 35.828 40.694 33.217 38.140 36.793 38.344 38.648 36.147 37.405 35.318 37.408 37.798 38.123 39.899 36.159 36.295 39.154 31.247 29.167 31.317 28.089 30.337 29.421 29.542 26.463 28.158 27.202 23.075 24.564 25.119 19.223 20.859 17.145 19.722 
10.742 7.297 7.908 12.639 13.030 10.293 13.201 14.781 13.088 12.762 15.677 15.870 17.745 18.991 18.495 17.636 20.184 20.974 19.701 20.690 18.765 20.536 21.239 22.750 23.360 24.938 26.655 24.289 22.807 28.876 25.268 25.950 26.822 27.290 25.480 29.532 26.601 30.682 32.406 30.645 30.769 33.730 32.663 33.859 33.153 33.959 35.808 38.241 38.686 31.968 38.558 36.440 38.682 35.691 36.111 38.522 32.770 35.209 37.066 34.743 34.462 34.811 35.304 33.162 30.373 31.327 32.174 29.851 31.443 30.530 24.718 27.608 26.400 25.828 22.699 21.913 27.205 24.102 22.839 19.426 19.530 
11.476 9.534 13.971 9.527 13.577 14.949 16.297 12.774 10.244 14.235 11.016 13.875 16.912 18.039 16.383 16.141 19.007 20.012 18.787 16.916 19.044 23.948 19.088 21.255 21.395 24.956 23.522 24.709 26.026 27.346 27.998 26.044 25.154 29.478 24.708 24.486 27.711 33.470 28.151 31.271 29.281 29.205 31.732 33.918 33.699 36.052 31.506 33.545 29.886 31.020 33.550 30.300 34.987 36.795 33.763 37.691 34.152 37.016 34.627 36.578 36.565 33.113 31.893 30.813 32.049 35.138 32.288 27.862 32.047 24.743 28.290 29.590 25.868 24.628 24.456 22.831 24.279 20.343 20.650 20.184 18.304 
12.013 10.556 11.878 10.817 10.345 13.460 11.449 14.540 11.419 14.571 14.531 18.661 15.499 16.096 16.043 15.486 20.408 17.424 19.610 19.238 19.003 22.087 20.095 18.948 20.319 20.281 20.852 23.286 24.074 26.143 26.421 22.990 20.764 22.803 24.579 30.325 24.909 28.289 29.833 29.329 26.778 28.116 31.171 31.536 34.352 30.962 31.290 31.389 35.748 30.825 32.672 34.918 32.120 34.595 36.499 32.325 35.186 35.903 34.466 36.474 35.026 31.600 33.614 30.649 31.758 34.299 31.057 30.062 29.135 28.276 32.858 29.811 26.006 26.049 20.349 23.845 23.559 23.382 16.841 19.536 14.882 
13.830 9.224 13.438 11.887 8.961 10.693 12.235 10.851 14.525 13.011 15.086 15.297 16.784 14.005 12.915 13.904 13.262 14.968 17.433 22.227 17.724 19.813 22.078 22.763 25.773 20.508 26.527 22.354 23.039 22.741 28.491 23.698 24.571 25.947 27.126 27.063 29.844 29.996 31.827 31.277 25.570 27.524 31.335 33.993 27.729 28.488 30.101 33.805 33.145 33.236 33.311 33.184 34.668 32.830 32.907 34.313 34.378 30.141 33.810 36.930 31.895 31.901 32.304 33.997 31.911 31.096 29.167 29.579 25.206 33.047 30.760 27.637 26.071 23.544 23.132 20.230 24.388 19.721 21.170 20.160 17.190 
7.069 11.093 12.175 8.267 10.765 12.390 10.429 14.426 12.668 14.279 10.309 10.173 17.886 15.791 14.615 16.289 14.950 17.882 18.495 21.679 20.876 16.068 13.533 20.440 23.979 20.611 22.434 21.284 22.219 22.537 21.422 21.862 23.733 24.413 21.093 23.788 24.702 26.810 27.668 28.590 28.017 28.614 29.598 28.754 29.876 30.403 30.013 32.917 32.142 30.451 30.080 35.270 31.361 31.733 35.845 33.587 32.670 32.742 32.441 28.060 31.160 32.514 30.705 31.906 29.282 34.102 30.286 28.342 27.686 27.298 28.267 27.555 22.605 26.630 23.502 24.866 21.498 19.307 21.334 18.752 21.271 
11.295 8.752 9.321 7.639 10.685 9.679 10.505 11.340 13.906 12.884 17.069 10.607 14.321 12.980 17.665 15.897 16.720 20.077 14.490 18.057 18.549 15.647 17.702 16.517 18.054 19.403 16.409 16.992 22.223 21.249 21.391 23.840 22.423 22.543 25.408 27.867 26.188 25.649 25.261 25.690 26.442 29.227 26.603 29.564 29.387 26.580 29.482 30.780 30.489 30.551 33.112 29.862 35.343 31.067 32.981 29.887 30.235 33.359 32.724 29.807 31.827 31.570 36.631 32.717 29.038 27.848 30.719 30.684 27.871 28.665 24.549 23.611 24.006 24.248 19.786 19.529 25.380 18.647 20.964 18.777 15.428 
8.372 6.535 8.760 8.061 10.624 14.447 13.837 9.571 11.554 15.435 11.145 9.809 14.075 14.494 14.476 16.357 13.871 14.903 13.383 15.022 13.513 18.893 16.754 13.142 16.677 20.542 19.103 15.192 21.302 22.677 20.938 18.884 26.873 20.166 25.328 25.064 24.626 24.370 23.042 27.078 25.882 26.554 28.094 26.770 28.496 30.461 25.442 27.431 32.804 30.558 30.307 30.948 30.686 29.507 29.707 32.646 34.608 31.934 29.344 37.160 29.638 31.340 28.937 27.762 26.994 28.734 27.112 26.845 28.380 25.216 25.438 23.803 24.464 22.522 23.349 20.051 20.599 19.310 18.504 18.062 18.162 
8.183 6.033 9.606 15.144 11.658 10.748 10.407 7.403 11.987 13.024 11.784 12.657 9.834 11.444 12.697 9.462 14.551 11.784 16.040 12.505 14.241 15.855 16.292 16.841 16.909 17.075 20.440 17.843 20.675 21.000 20.874 18.083 22.682 20.569 21.247 23.515 24.964 27.833 24.749 24.452 22.871 30.514 28.452 27.215 27.674 28.935 25.980 26.820 28.876 32.812 32.717 30.622 35.298 31.968 30.417 34.193 27.221 33.502 28.198 34.024 28.782 29.891 29.483 27.365 27.655 28.807 28.980 27.974 27.847 26.235 23.225 22.813 24.020 22.096 19.222 18.136 20.409 19.356 19.304 13.028 16.744 
10.080 6.795 8.931 9.354 9.495 8.507 5.967 10.810 9.311 10.738 9.727 10.111 11.452 14.393 10.468 14.918 13.581 10.520 14.198 14.657 12.570 16.000 16.120 14.544 17.320 18.341 18.382 19.152 14.632 19.474 16.928 20.790 20.339 20.637 26.102 23.943 20.246 19.625 23.780 24.939 24.885 25.016 27.078 22.019 25.921 26.819 28.040 30.012 26.189 30.646 30.440 28.866 27.838 29.903 29.447 31.152 28.860 29.541 32.166 30.068 33.952 30.806 31.434 27.253 29.646 29.264 26.859 24.352 24.716 23.526 25.527 25.082 18.373 25.451 19.998 19.575 17.359 17.798 20.865 16.074 16.788 
11.434 8.537 2.805 9.634 8.858 6.556 6.367 8.747 12.554 14.903 8.650 12.348 16.260 11.354 10.462 13.062 12.230 17.415 13.809 14.544 17.089 14.001 17.217 14.305 19.657 15.773 17.245 16.240 18.357 15.755 19.240 19.980 17.522 20.964 15.762 16.156 20.574 23.112 22.830 22.967 20.995 22.660 26.306 23.044 26.379 26.896 25.756 27.896 26.534 27.187 28.633 28.667 27.282 27.866 25.322 26.998 26.273 31.639 29.004 30.564 28.624 28.571 25.671 25.348 24.966 24.593 26.543 24.820 20.291 27.206 26.317 25.117 19.313 23.125 24.398 19.577 19.365 20.575 18.761 11.489 14.774 
9.239 7.728 12.414 8.808 11.566 8.461 13.695 7.334 11.944 10.686 11.725 9.710 11.537 11.027 11.185 13.589 14.077 10.340 12.333 13.309 11.195 14.058 16.839 16.776 15.997 14.928 16.846 15.101 17.135 20.408 18.076 16.894 20.414 19.515 16.370 17.817 20.300 16.489 21.614 23.657 21.591 25.830 21.291 17.638 25.753 25.789 22.083 25.358 30.454 26.080 25.773 30.354 27.674 25.834 27.070 30.187 26.088 25.333 28.914 25.519 29.228 25.189 24.325 24.900 26.521 27.268 25.741 23.314 21.714 23.766 23.523 20.862 22.261 21.716 23.895 21.680 15.966 19.039 16.458 18.556 18.472 
12.157 7.146 10.462 10.810 6.644 8.901 8.608 12.483 7.994 7.883 15.087 7.980 12.072 12.073 11.255 13.100 10.673 16.391 13.080 14.635 15.191 16.768 15.122 13.983 12.542 18.178 16.272 16.631 15.649 14.578 16.645 19.654 14.516 17.608 18.016 21.513 21.135 21.979 14.648 20.342 23.488 18.667 24.637 23.895 22.034 20.623 22.657 27.847 26.134 29.111 23.413 28.956 25.395 25.206 27.245 27.120 26.587 24.716 25.880 29.079 29.391 26.659 26.200 26.838 24.640 21.700 25.604 27.107 22.047 23.362 21.028 24.078 18.778 17.822 17.363 18.569 17.241 17.391 18.862 17.390 15.064 
7.599 7.034 7.115 8.022 12.606 10.621 8.786 13.019 6.763 6.747 8.624 11.319 10.054 7.481 12.073 11.160 12.787 11.022 13.601 9.654 14.277 14.668 12.449 9.708 17.195 16.526 13.840 15.951 16.210 13.772 17.055 12.692 17.417 14.176 17.350 17.305 17.332 19.696 16.981 17.676 24.711 24.354 22.808 25.534 21.755 26.556 22.352 24.978 21.440 21.634 24.552 23.390 25.854 28.945 27.124 27.195 25.943 27.370 21.843 29.088 21.985 22.630 26.538 22.814 27.227 25.968 20.889 23.684 22.229 24.047 21.788 18.448 22.577 19.245 16.699 18.153 14.814 18.762 16.895 15.940 16.129 
5.720 5.371 11.180 9.572 9.620 5.519 8.548 7.886 12.094 6.513 8.487 10.010 9.261 9.374 8.401 12.967 13.277 10.123 11.508 12.499 7.831 14.765 9.541 14.533 13.586 15.615 13.227 15.157 14.510 11.574 16.612 17.359 15.020 16.473 18.337 16.622 18.369 19.118 21.580 19.293 22.968 20.146 21.691 21.253 22.080 21.943 21.908 23.754 22.792 23.844 26.774 24.266 19.848 22.894 24.683 23.891 24.963 25.996 26.823 23.711 26.788 21.142 24.745 22.941 27.514 24.770 22.342 21.460 23.867 22.632 20.894 17.463 21.369 21.005 18.730 16.751 16.403 19.466 12.884 13.282 17.280 
4.189 8.792 8.552 6.458 7.193 7.056 5.372 6.656 7.642 8.841 9.677 6.170 8.413 7.473 13.341 10.770 10.315 14.266 12.751 12.312 9.427 9.991 13.668 11.609 10.562 12.960 15.252 12.713 14.711 12.301 13.530 14.740 11.835 16.751 17.949 14.761 20.166 23.127 16.563 18.008 19.773 18.403 22.760 23.391 23.361 23.681 20.096 25.498 25.330 23.127 23.980 24.609 20.533 23.662 25.631 20.849 25.036 24.038 20.899 28.040 25.700 25.389 25.370 22.566 24.607 25.811 21.249 22.551 23.636 21.712 19.121 17.614 22.657 15.995 19.359 18.842 16.459 18.686 11.770 12.592 17.332 
8.188 9.836 9.640 6.319 6.691 3.397 8.068 10.538 7.303 8.589 5.583 8.794 9.609 8.671 8.191 12.084 12.155 12.045 6.356 11.051 9.608 12.540 12.430 12.684 15.004 14.463 13.777 12.477 12.623 11.686 11.514 11.831 16.998 10.740 18.162 15.965 19.117 14.149 18.054 17.676 21.571 18.907 17.494 21.589 20.867 17.886 20.512 19.860 20.623 21.797 20.182 24.580 25.176 25.350 24.637 19.470 20.403 21.397 22.760 21.205 20.798 20.638 23.473 23.565 24.001 23.010 21.124 25.751 17.997 22.188 18.863 18.170 15.832 20.313 20.995 17.349 17.409 18.080 18.256 15.744 13.801 
4.366 11.941 8.789 8.780 8.105 8.498 5.666 8.760 9.356 6.596 6.935 7.575 9.700 8.057 10.308 11.561 9.378 13.136 12.272 7.443 12.208 12.581 12.563 11.425 13.108 12.988 12.473 12.844 11.977 14.127 12.806 8.894 16.740 11.201 13.744 20.107 16.568 19.755 16.604 17.356 15.676 19.336 18.031 20.379 20.999 21.817 19.091 20.137 20.153 23.184 19.265 24.288 19.716 19.315 22.325 24.812 21.969 18.642 21.988 23.935 25.279 18.321 24.459 25.638 23.166 22.112 21.978 17.894 20.713 18.410 15.840 15.524 15.835 15.653 17.603 13.781 14.919 15.236 16.035 15.965 14.223 
7.063 5.784 9.271 4.989 7.691 9.039 8.471 9.154 8.952 8.506 7.563 10.419 6.105 8.327 12.237 10.965 9.102 6.211 9.801 9.071 8.412 11.877 7.920 12.609 10.570 12.360 16.621 10.404 11.790 14.723 14.732 11.781 15.395 14.878 14.937 12.598 12.634 16.875 12.526 17.700 15.478 16.006 16.095 17.076 18.889 17.926 17.549 18.878 21.953 24.023 19.227 21.992 16.469 19.537 20.715 24.466 23.537 22.722 20.116 24.472 19.644 17.267 21.673 21.520 16.445 20.005 19.167 17.458 19.145 15.135 18.976 19.627 14.878 16.249 14.709 14.905 14.656 13.536 11.874 15.563 16.441 
4.882 5.267 8.934 6.020 5.655 6.848 8.681 4.372 10.063 6.053 7.827 9.137 8.282 8.153 6.317 9.467 10.749 11.388 13.240 8.880 11.189 8.739 7.221 12.549 11.263 12.480 10.788 10.623 11.385 11.553 11.791 8.241 12.637 12.205 13.036 15.464 17.611 13.934 14.260 14.232 13.124 15.838 15.171 19.483 15.911 19.662 18.207 21.053 18.450 15.554 19.245 19.224 20.606 21.783 21.052 16.364 19.977 18.599 21.960 21.233 19.826 20.433 19.138 16.855 20.975 17.935 18.060 17.741 14.430 18.428 15.825 17.693 18.669 15.521 13.725 18.757 11.858 12.118 13.736 15.176 15.284 
7.287 5.098 9.941 7.055 8.729 10.330 5.943 2.086 7.477 6.473 7.747 7.347 10.275 8.185 11.221 8.788 9.908 6.908 12.602 9.103 6.874 10.696 9.341 11.082 8.259 9.418 12.590 11.215 7.894 13.393 11.856 12.133 10.500 13.249 10.204 11.193 12.907 12.850 18.145 13.768 13.777 12.745 16.913 16.539 19.509 16.770 18.571 18.269 19.128 16.684 18.500 19.608 18.159 20.064 20.324 19.105 18.836 18.954 18.932 19.614 18.504 19.879 16.634 21.145 17.871 20.233 18.024 19.857 19.081 16.129 20.424 11.498 16.224 14.153 12.453 16.173 12.892 12.140 10.943 12.420 10.234 
4.506 7.587 5.667 8.209 5.811 7.297 4.492 4.777 3.703 7.519 9.172 11.409 5.364 7.446 10.388 8.813 11.502 6.083 8.462 6.717 7.670 9.769 10.904 6.589 8.072 8.150 8.560 8.693 12.586 7.983 12.436 13.908 14.026 11.488 15.316 12.594 12.809 14.638 10.338 14.809 16.213 13.894 13.870 15.079 16.189 16.723 16.417 15.411 17.590 18.146 18.174 19.100 18.933 18.901 17.876 20.082 14.401 16.248 17.116 15.251 19.648 18.896 19.841 18.113 16.365 16.251 16.670 17.043 17.821 16.083 17.909 12.336 15.878 15.667 13.061 14.824 15.569 13.126 10.385 8.621 14.746 
4.562 7.832 10.270 8.592 7.371 8.070 4.815 6.342 2.275 8.748 5.301 7.450 9.875 8.227 8.653 4.695 8.957 7.245 9.008 6.692 10.134 10.165 9.431 7.000 9.362 10.537 10.812 6.860 11.362 10.986 8.161 13.548 11.209 10.812 11.963 9.616 12.828 12.862 13.523 12.956 12.665 17.856 12.535 12.927 16.325 13.985 13.848 16.228 17.766 16.999 14.231 14.041 19.657 17.565 17.253 17.632 19.922 17.694 17.606 17.644 15.323 11.510 17.272 17.235 12.160 17.559 16.627 14.282 15.349 17.140 15.927 18.498 12.808 14.532 11.413 14.052 12.581 11.293 12.955 11.089 9.994 
3.830 9.217 3.628 11.499 7.841 3.876 12.213 6.219 6.883 6.964 5.074 6.905 5.350 9.628 6.115 7.766 8.831 6.751 5.686 4.619 9.072 6.846 9.934 7.176 12.251 8.251 10.212 8.941 10.364 11.333 7.370 13.343 11.645 9.807 12.085 12.672 11.136 9.225 12.731 14.499 10.488 16.239 14.181 18.010 14.439 15.484 14.252 18.483 17.581 16.558 17.630 14.331 12.958 14.909 18.067 14.467 16.087 16.829 18.600 14.621 16.138 15.029 18.226 16.086 15.521 15.539 14.688 13.814 16.328 15.382 16.128 12.735 14.494 13.191 12.631 7.390 10.130 11.205 8.873 16.627 11.413 
0.564 4.139 8.376 7.712 7.717 2.651 3.248 3.607 4.129 8.345 5.814 7.416 5.647 7.722 5.979 10.784 7.321 8.008 6.344 6.158 8.267 8.466 8.635 9.879 11.253 9.544 11.552 13.064 11.459 9.667 10.329 9.766 8.688 9.616 8.073 10.286 13.287 13.643 12.430 12.231 9.081 10.268 14.532 13.111 19.165 16.642 11.409 17.704 15.937 12.791 14.850 14.266 16.295 16.783 15.822 15.687 16.582 13.351 16.497 12.144 17.098 15.563 16.391 16.120 13.376 15.205 18.079 12.442 10.615 16.337 17.724 13.222 13.761 14.015 10.389 13.461 13.130 12.136 10.124 14.240 10.351 
6.329 7.037 10.558 4.011 7.111 4.360 5.680 5.943 6.527 7.129 5.774 8.038 5.803 8.415 4.622 7.687 5.396 3.337 6.266 9.582 8.087 8.038 9.179 9.413 6.993 7.850 5.838 8.366 8.402 8.588 6.557 11.895 9.879 12.019 11.321 9.557 8.206 10.430 10.597 14.683 14.252 13.295 11.559 7.989 14.787 11.410 16.870 12.362 17.175 16.579 13.790 15.314 13.453 16.554 15.262 13.403 15.478 13.089 17.186 13.936 14.555 11.366 14.886 18.530 13.196 13.172 14.601 15.171 14.736 14.572 16.953 16.182 10.362 14.387 12.230 13.213 10.908 13.061 8.391 8.894 7.333 
4.176 7.769 8.173 4.118 4.299 5.095 6.601 6.849 2.084 7.878 4.095 6.462 3.936 4.022 7.597 10.690 7.105 8.427 6.725 6.966 4.619 6.780 8.886 8.370 7.772 8.208 7.025 10.716 6.414 10.719 10.724 7.471 9.460 11.791 11.514 11.638 12.869 11.122 10.241 10.012 10.106 12.189 13.313 13.565 13.302 13.863 14.982 14.651 11.444 11.585 15.673 12.322 12.817 13.233 9.619 12.919 13.223 13.235 11.977 13.690 15.286 12.415 15.144 18.153 14.368 15.656 14.548 15.819 13.671 10.758 13.355 11.528 14.971 11.087 14.728 12.340 13.599 13.071 12.741 10.632 6.962 
1.775 4.511 8.782 2.995 7.656 6.881 3.356 9.151 10.043 7.942 5.645 4.468 10.411 7.878 6.785 7.101 8.902 9.839 7.250 6.195 0.982 6.590 7.392 12.004 9.171 8.434 5.692 6.535 5.333 9.401 11.661 7.882 9.720 10.621 8.428 8.477 9.624 10.436 9.518 14.582 14.668 11.298 14.445 12.124 15.772 13.713 10.073 17.140 12.018 15.816 12.175 16.287 9.737 14.051 14.463 12.252 17.644 9.613 12.187 15.840 10.850 14.576 13.871 16.774 15.217 11.084 15.046 14.996 13.180 10.513 11.488 12.924 11.232 11.170 5.507 12.218 9.943 11.906 6.252 9.717 11.901 
